!!!COM: Mendelssohn, Felix
!!!CDT: 1809/02/03-1847/11/04
!!!OPR: Sechs vierstimmige Lieder
!!!OTL: Frühzeitiger Frühling
!!!OPS: Op. 59
!!!ONM: Nr. 2
!!!OMD: Allegretto non troppo
**kern	**text	**text	**dynam	**kern	**text	**text	**dynam	**kern	**text	**text	**dynam	**kern	**text	**text	**dynam
*part4	*part4	*part4	*part4	*part3	*part3	*part3	*part3	*part2	*part2	*part2	*part2	*part1	*part1	*part1	*part1
*staff4	*staff4	*staff4	*	*staff3	*staff3	*staff3	*	*staff2	*staff2	*staff2	*	*staff1	*staff1	*staff1	*
*I"Bass	*	*	*	*I"Tenor	*	*	*	*I"Alt	*	*	*	*I"Sopran	*	*	*
*clefF4	*	*	*	*clefGv2	*	*	*	*clefG2	*	*	*	*clefG2	*	*	*
*k[f#]	*	*	*	*k[f#]	*	*	*	*k[f#]	*	*	*	*k[f#]	*	*	*
*G:	*	*	*	*G:	*	*	*	*G:	*	*	*	*G:	*	*	*
*M3/8	*	*	*	*M3/8	*	*	*	*M3/8	*	*	*	*M3/8	*	*	*
*MM104	*	*	*	*MM104	*	*	*	*MM104	*	*	*	*MM104	*	*	*
=1	=1	=1	=1	=1	=1	=1	=1	=1	=1	=1	=1	=1	=1	=1	=1
8G	1.Ta-	2.Bläu-	mf	8d	1.Ta-	2.Bläu-	mf	8b	1.Ta-	2.Bläu-	mf	8dd	1.Ta-	2.Bläu-	mf
.	.	.	.	.	.	.	.	.	.	.	.	8qff#/	.	.	.
8G	-ge	-li-	.	8c	-ge	-li-	.	8a	-ge	-li-	.	8ee	-ge	-li-	.
8G	der	-che	.	8c	der	-che	.	8a	der	-che	.	8dd	der	-che	.
=2	=2	=2	=2	=2	=2	=2	=2	=2	=2	=2	=2	=2	=2	=2	=2
4G	Won-	Fri-	.	4B	Won-	Fri-	.	4g	Won-	Fri-	.	4gg	Won-	Fri-	.
8G	-ne,	-sche!	.	8B	-ne,	-sche!	.	8g	-ne,	-sche!	.	8dd	-ne,	-sche!	.
=3	=3	=3	=3	=3	=3	=3	=3	=3	=3	=3	=3	=3	=3	=3	=3
8G	kommt	Him-	.	8d	kommt	Him-	.	8g	kommt	Him-	.	8b	kommt	Him-	.
8A	ihr	-mel	.	8d	ihr	-mel	.	8f#	ihr	-mel	.	8cc	ihr	-mel	.
8c	so	und	.	8d	so	und	.	8f#	so	und	.	8ee	so	und	.
=4	=4	=4	=4	=4	=4	=4	=4	=4	=4	=4	=4	=4	=4	=4	=4
4.B	bald?	Höh'!	.	4.d	bald?	Höh'!	.	4.g	bald?	Höh'!	.	4.dd	bald?	Höh'!	.
=5	=5	=5	=5	=5	=5	=5	=5	=5	=5	=5	=5	=5	=5	=5	=5
8BB	Schenkt	Gol-	.	8d	Schenkt	Gol-	.	8g	Schenkt	Gol-	.	8dd	Schenkt	Gol-	.
8BB	mir	-de-	.	8d	mir	-de-	.	8g	mir	-de-	.	8cc	mir	-de-	.
8BB	die	-ne	.	8d#X	die	-ne	.	8g	die	-ne	.	8b	die	-ne	.
=6	=6	=6	=6	=6	=6	=6	=6	=6	=6	=6	=6	=6	=6	=6	=6
(8.BBL	Son-	Fi-	.	(8.d#XL	Son-	Fi-	.	4g	Son-	Fi-	.	(8.bL	Son-	Fi-	.
16CJk)	.	.	.	16eJk)	.	.	.	.	.	.	.	16aJk)	.	.	.
8C	-ne,	-sche	.	8e	-ne,	-sche	.	8g	-ne,	-sche	.	8a	-ne,	-sche	.
=7	=7	=7	=7	=7	=7	=7	=7	=7	=7	=7	=7	=7	=7	=7	=7
8C#X	Hü-	wim-	.	8e	Hü-	wim-	.	8g	Hü-	wim-	.	8ee	Hü-	wim-	.
8C#	-gel	-meln	.	8e	-gel	-meln	.	8g	-gel	-meln	.	8a	-gel	-meln	.
8C#	und	im	.	8e	und	im	.	8g	und	im	.	8a	und	im	.
=8	=8	=8	=8	=8	=8	=8	=8	=8	=8	=8	=8	=8	=8	=8	=8
4.D	Wald?	See.	.	4.dn	Wald?	See.	.	4.f#	Wald?	See.	.	4.a	Wald?	See.	.
=9	=9	=9	=9	=9	=9	=9	=9	=9	=9	=9	=9	=9	=9	=9	=9
8.F#	Reich-	Bun-	p	8.c	Reich-	Bun-	p	8.d	Reich-	Bun-	p	8.a	Reich-	Bun-	p
16E	-li-	-tes	.	16c	-li-	-tes	.	16d	-li-	-tes	.	16g	-li-	-tes	.
8D	-cher	Ge-	.	8c	-cher	Ge-	.	8d	-cher	Ge-	.	8f#	-cher	Ge-	.
=10	=10	=10	=10	=10	=10	=10	=10	=10	=10	=10	=10	=10	=10	=10	=10
(8AL	flie-	-fie-	<	4c	flie-	-fie-	<	4d	flie-	-fie-	<	(8ccL	flie-	-fie-	<
8GJ)	.	.	.	.	.	.	.	.	.	.	.	8bJ)	.	.	.
8F#	-ssen	-der	.	8c	-ssen	-der	.	8d	-ssen	-der	.	8a	-ssen	-der	.
=11	=11	=11	=11	=11	=11	=11	=11	=11	=11	=11	=11	=11	=11	=11	=11
8c	Bäch-	rau-	.	8c	Bäch-	rau-	.	8f#	Bäch-	rau-	.	8ee	Bäch-	rau-	.
8B	-lein	-schet	.	8c	-lein	-schet	.	8f#	-lein	-schet	.	8dd	-lein	-schet	.
8A	zu-	im	.	8c	zu-	im	.	8f#	zu-	im	.	8cc	zu-	im	.
=12	=12	=12	=12	=12	=12	=12	=12	=12	=12	=12	=12	=12	=12	=12	=12
4.A	-mal,	Hain;	.	4.c	-mal,	Hain;	.	4.f#	-mal,	Hain;	.	4.cc	-mal,	Hain;	.
=13	=13	=13	=13	=13	=13	=13	=13	=13	=13	=13	=13	=13	=13	=13	=13
*C:	*	*	*	*C:	*	*	*	*C:	*	*	*	*C:	*	*	*
8.G	reich-	himm-	<	8.d	reich-	himm-	<	8.fn	reich-	himm-	<	8.b	reich-	himm-	<
16G	-li-	-li-	.	16c	-li-	-li-	.	16f	-li-	-li-	.	16a	-li-	-li-	.
8G	-cher	-sche	.	8B	-cher	-sche	.	8f	-cher	-sche	.	8g	-cher	-sche	.
=14	=14	=14	=14	=14	=14	=14	=14	=14	=14	=14	=14	=14	=14	=14	=14
4G	flie-	Lie-	.	(8fnL	flie-	Lie-	.	4fn	flie-	Lie-	.	(8ddL	flie-	Lie-	.
.	.	.	.	8eJ)	.	.	.	.	.	.	.	8ccJ)	.	.	.
8G	-ssen	-der	.	8d	-ssen	-der	.	8f	-ssen	-der	.	8b	-ssen	-der	.
=15	=15	=15	=15	=15	=15	=15	=15	=15	=15	=15	=15	=15	=15	=15	=15
8G	Bäch-	schal-	sf	8B	Bäch-	schal-	sf	8a	Bäch-	schal-	sf	8ffn	Bäch-	schal-	sf
8G	-lein	-len	.	8B	-lein	-len	.	8g	-lein	-len	.	8ee	-lein	-len	.
8G	zu-	dar-	.	8B	zu-	dar-	.	8fn	zu-	dar-	.	8dd	zu-	dar-	.
=16	=16	=16	=16	=16	=16	=16	=16	=16	=16	=16	=16	=16	=16	=16	=16
4.G	-mal.	-ein,	.	4.B	-mal.	-ein,	.	4.fn	-mal.	-ein,	.	4.dd	-mal.	-ein,	.
=17	=17	=17	=17	=17	=17	=17	=17	=17	=17	=17	=17	=17	=17	=17	=17
4.r	.	.	.	4.r	.	.	.	8e	Sind	himm-	f	8g	Sind	himm-	f
.	.	.	.	.	.	.	.	8g	es	-li-	.	8cc	es	-li-	.
.	.	.	.	.	.	.	.	8cc	die	-sche	.	8ee	die	-sche	.
=18	=18	=18	=18	=18	=18	=18	=18	=18	=18	=18	=18	=18	=18	=18	=18
4.r	.	.	.	4.r	.	.	.	4.ee	Wie-	Lie-	>	4.gg	Wie-	Lie-	>
=19	=19	=19	=19	=19	=19	=19	=19	=19	=19	=19	=19	=19	=19	=19	=19
8E	Sind	himm-	f	8G	Sind	himm-	f	4.cc	-sen?	-der	]]	4.ee	-sen?	-der	]]
8G	es	-li-	.	8c	es	-li-	.	.	.	.	.	.	.	.	.
8c	die	-sche	.	8e	die	-sche	.	.	.	.	.	.	.	.	.
=20	=20	=20	=20	=20	=20	=20	=20	=20	=20	=20	=20	=20	=20	=20	=20
4.e	Wie-	Lie-	>	4.g	Wie-	Lie-	>	4.r	.	.	.	4.r	.	.	.
=21	=21	=21	=21	=21	=21	=21	=21	=21	=21	=21	=21	=21	=21	=21	=21
*a:	*	*	*	*a:	*	*	*	*a:	*	*	*	*a:	*	*	*
4.c	-sen?	-der	]]	4.e	-sen?	-der	]]	8c	Ist	schal-	p	8e	Ist	schal-	p
.	.	.	.	.	.	.	.	8e	es	-len	.	8a	es	-len	.
.	.	.	.	.	.	.	.	8a	das	dar-	.	8cc	das	dar-	.
=22	=22	=22	=22	=22	=22	=22	=22	=22	=22	=22	=22	=22	=22	=22	=22
4.r	.	.	.	4.r	.	.	.	[4.cc	Thal?	-ein.	>	[4.ee	Thal?	-ein.	>
=23	=23	=23	=23	=23	=23	=23	=23	=23	=23	=23	=23	=23	=23	=23	=23
8C	Ist	schal-	p	8E	Ist	schal-	p	4.cc]	.	.	]]	4.ee]	.	.	]]
8E	es	-len	.	8A	es	-len	.	.	.	.	.	.	.	.	.
8A	das	dar-	.	8c	das	dar-	.	.	.	.	.	.	.	.	.
=24	=24	=24	=24	=24	=24	=24	=24	=24	=24	=24	=24	=24	=24	=24	=24
4.c	Thal?	-ein.	.	4.e	Thal?	-ein.	>	4.r	.	.	.	4.r	.	.	.
=25	=25	=25	=25	=25	=25	=25	=25	=25	=25	=25	=25	=25	=25	=25	=25
*G:	*	*	*	*G:	*	*	*	*G:	*	*	*	*G:	*	*	*
8c	reich-	bun-	.	4.e	.	.	]]	8g	reich-	bun-	p	8a	reich-	bun-	p
.	.	.	.	.	.	.	.	.	.	.	.	8qcc/	.	.	.
8c	-li-	-tes	.	.	.	.	.	8g	-li-	-tes	.	8b	-li-	-tes	.
8c	-cher	Ge-	.	.	.	.	.	8g	-cher	Ge-	.	8a	-cher	Ge-	.
=26	=26	=26	=26	=26	=26	=26	=26	=26	=26	=26	=26	=26	=26	=26	=26
4c	flie-	-fie-	.	4.ra	.	.	.	4f#	flie-	-fie-	.	4ee	flie-	-fie-	.
8B	-ssen	-der	.	.	.	.	.	8g	-ssen	-der	.	8dd	-ssen	-der	.
=27	=27	=27	=27	=27	=27	=27	=27	=27	=27	=27	=27	=27	=27	=27	=27
8c	Bäch-	rau-	.	8e	Bäch-	rau-	p	8g	Bäch-	rau-	.	8a	Bäch-	rau-	.
.	.	.	.	.	.	.	.	.	.	.	.	8qcc/	.	.	.
8c	-lein	-schet	.	8e	-lein	-schet	.	8g	-lein	-schet	.	8b	-lein	-schet	.
8c	zu-	im	.	8e	zu-	im	.	8g	zu-	im	.	8a	zu-	im	.
=28	=28	=28	=28	=28	=28	=28	=28	=28	=28	=28	=28	=28	=28	=28	=28
(4c	-mal.	Hain;	.	(4c	-mal.	Hain;	.	(4f#	-mal.	Hain;	.	(4ee	-mal.	Hain;	.
8B)	.	himm-	.	8d)	.	himm-	.	8g)	.	himm-	.	8dd)	.	himm-	.
=29	=29	=29	=29	=29	=29	=29	=29	=29	=29	=29	=29	=29	=29	=29	=29
8BB	Sind	.	.	8d	Sind	.	.	8b	Sind	.	.	8dd	Sind	.	.
8C	es	-li-	.	8e	es	-li-	.	8a	es	-li-	.	8cc	es	-li-	.
8C#X	die	-sche	.	8e	die	-sche	.	8g	die	-sche	.	8b	die	-sche	.
=30	=30	=30	=30	=30	=30	=30	=30	=30	=30	=30	=30	=30	=30	=30	=30
4D	Wie	Lie-	.	(8dL	Wie	Lie-	.	(8gL	Wie	Lie-	.	(8bL	Wie	Lie-	.
.	.	.	.	8cJ)	.	.	.	8f#J)	.	.	.	8aJ)	.	.	.
8D	sen,	-der	.	8B	sen,	-der	.	8g	sen,	-der	.	8b	sen,	-der	.
=31	=31	=31	=31	=31	=31	=31	=31	=31	=31	=31	=31	=31	=31	=31	=31
8D	ist	schal-	.	8A	ist	schal-	.	8f#	ist	schal-	.	8cc	ist	schal-	.
8D	es	-len	.	8c	es	-len	.	8f#	es	-len	.	8a	es	-len	.
8D	das	dar-	.	8d	das	dar-	.	8f#	das	dar-	.	8b	das	dar-	.
=32	=32	=32	=32	=32	=32	=32	=32	=32	=32	=32	=32	=32	=32	=32	=32
4.G	Thal?	-ein;	.	4.B	Thal?	-ein;	.	4.g	Thal?	-ein;	.	4.g	Thal?	-ein;	.
=33	=33	=33	=33	=33	=33	=33	=33	=33	=33	=33	=33	=33	=33	=33	=33
8GG	Sind	himm-	pp	8c	Sind	himm-	pp	8d	Sind	himm-	pp	4.r	.	.	.
.	.	.	.	.	.	.	.	8qf#/	.	.	.	.	.	.	.
8GG	es	-li-	.	8c	es	-li-	.	8e	es	-li-	.	.	.	.	.
8GG	die	-sche	.	8c	die	-sche	.	8d	die	-sche	.	.	.	.	.
=34	=34	=34	=34	=34	=34	=34	=34	=34	=34	=34	=34	=34	=34	=34	=34
4GG	Wie-	Lie-	.	4B	Wie-	Lie-	.	4g	Wie-	Lie-	.	4.dd	Sind	himm-	.
8GG	-sen,	-der	.	8B	-sen,	-der	.	8d	-sen,	-der	.	.	.	.	.
=35	=35	=35	=35	=35	=35	=35	=35	=35	=35	=35	=35	=35	=35	=35	=35
8GG	ist	schal-	.	8c	ist	schal-	.	8d	ist	schal-	.	4dd	es	-li-	p
.	.	.	.	.	.	.	.	8qf#/	.	.	.	.	.	.	.
8GG	es	-len	.	8c	es	-len	.	8e	es	-len	.	.	.	.	.
8GG	das	dar-	.	8c	das	dar-	.	8d	das	dar-	.	8f#	die	-sche	.
=36	=36	=36	=36	=36	=36	=36	=36	=36	=36	=36	=36	=36	=36	=36	=36
4.GG	Thal?	-ein.	.	4.B	Thal?	-ein.	.	4.d	Thal?	-ein.	.	(4g	Wie-	Lie-	.
.	.	.	.	.	.	.	.	.	.	.	.	8b)	.	.	.
=37	=37	=37	=37	=37	=37	=37	=37	=37	=37	=37	=37	=37	=37	=37	=37
8GG	ist	schal-	.	8c	ist	schal-	.	8d	ist	schal-	.	(4a	-sen,	-der	.
.	.	.	.	.	.	.	.	8qf#/	.	.	.	.	.	.	.
8GG	es	-len	.	8c	es	-len	.	8e	es	-len	.	.	.	.	.
8GG	das	dar-	.	8c	das	dar-	.	8d	das	dar-	.	8f#)	.	.	.
=38	=38	=38	=38	=38	=38	=38	=38	=38	=38	=38	=38	=38	=38	=38	=38
(4GG	Thal?	-ein,	<	(4B	Thal?	-ein,	<	(4d	Thal?	-ein,	<	4.dd	ist	schal-	<
8BB)	.	.	.	8d)	.	.	.	8g)	.	.	.	.	.	.	.
=39	=39	=39	=39	=39	=39	=39	=39	=39	=39	=39	=39	=39	=39	=39	=39
!LO:TX:a:t=ritard.	!	!	!	!LO:TX:a:t=ritard.	!	!	!	!LO:TX:a:t=ritard.	!	!	!	!LO:TX:a:t=ritard.	!	!	!
4.D	das	dar-	.	(4d	das	dar-	.	(4b	das	dar-	.	(8ddL	es	-len	.
.	.	.	.	.	.	.	.	.	.	.	.	8bJ)	.	.	.
.	.	.	.	8c)	.	.	.	8a)	.	.	.	8dd	das	dar-	.
=40	=40	=40	=40	=40	=40	=40	=40	=40	=40	=40	=40	=40	=40	=40	=40
4.GG;	Thal?	-ein.	.	4.B;	Thal?	-ein.	.	4.g;	Thal?	-ein.	.	4.gg;	Thal?	-ein.	.
=:|!41	=:|!41	=:|!41	=:|!41	=:|!41	=:|!41	=:|!41	=:|!41	=:|!41	=:|!41	=:|!41	=:|!41	=:|!41	=:|!41	=:|!41	=:|!41
*M2/4	*	*	*	*M2/4	*	*	*	*M2/4	*	*	*	*M2/4	*	*	*
*MM80	*	*	*	*MM80	*	*	*	*MM80	*	*	*	*MM80	*	*	*
8G	Un-	.	p	8B	Un-	.	p	8d	Un-	.	p	8b	Un-	.	p
16G	-terdes	.	.	16B	-terdes	.	.	16d	-terdes	.	.	16b	-terdes	.	.
16G	.	.	.	16B	.	.	.	16d	.	.	.	16b	.	.	.
=42	=42	=42	=42	=42	=42	=42	=42	=42	=42	=42	=42	=42	=42	=42	=42
*e:	*	*	*	*e:	*	*	*	*e:	*	*	*	*e:	*	*	*
8F#	Grü-	.	.	8A	Grü-	.	.	8d#X	Grü-	.	.		8b	Grü-	.	.
8F#	-nen	.	.	8A	-nen	.	.	8d#	-nen	.	.		8b	-nen	.	.
8F#	blü-	.	<	8A	blü-	.	<	8d#	blü-	.	<	8b	blü-	.	<
.	.	.	(	.	.	.	(	.	.	.	(	8qdd/	.	.	(
16F#	-hen-	.	(	16A	-hen-	.	(	16e	-hen-	.	(	16cc	-hen-	.	(
16F#	-der	.	[[	16A	-der	.	[[	16d#	-der	.	[[	16b	-der	.	[[
=43	=43	=43	=43	=43	=43	=43	=43	=43	=43	=43	=43	=43	=43	=43	=43
2E	Kraft	.	.	4e	Kraft	.	.	4g	Kraft	.	.	4ee	Kraft	.	.
.	.	.	.	4r	.	.	.	8a	na-	.	p	8cc	na-	.	p
.	.	.	.	.	.	.	.	16f#	-schen	.	.	16a	-schen	.	.
.	.	.	.	.	.	.	.	16a	die	.	.	16cc	die	.	.
=44	=44	=44	=44	=44	=44	=44	=44	=44	=44	=44	=44	=44	=44	=44	=44
4E	na-	.	.	8e	na-	.	p	8g	Bie-	.	.	8b	Bie-	.	.
.	.	.	.	16B	-schen	.	.	8e	-nen	.	.	8g	-nen	.	.
.	.	.	.	16e	die	.	.	.	.	.	.	.	.	.	.
8.E	-schen	.	.	8c	Bie-	.	.	8f#	sum-	.	.	8a	sum-	.	.
.	.	.	.	8A	-nen	.	.	16d#X	-mend	.	.	16f#	-mend	.	.
16E	die	.	.	.	.	.	.	16f#	am	.	.	16a	am	.	.
=45	=45	=45	=45	=45	=45	=45	=45	=45	=45	=45	=45	=45	=45	=45	=45
4E	Bie-	.	.	8B	sum-	.	.	4e	Saft.	.	.	4g	Saft.	.	.
.	.	.	.	16G	-mend	.	.	.	.	.	.	.	.	.	.
.	.	.	.	16B	am	.	.	.	.	.	.	.	.	.	.
4E	-nen	.	pp	4A	Saft,	.	.	8a	na-	.	pp	8cc	na-	.	pp
.	.	.	.	.	.	.	.	16f#	-schen	.	.	16a	-schen	.	.
.	.	.	.	.	.	.	.	16a	die	.	.	16cc	die	.	.
=46	=46	=46	=46	=46	=46	=46	=46	=46	=46	=46	=46	=46	=46	=46	=46
4E	sum-	.	.	(8eL	sum-	.	.	8g	Bie-	.	.	8b	Bie-	.	.
.	.	.	.	8BJ)	.	.	.	(16eL	-nen	.	.	(16gL	-nen	.	.
.	.	.	.	.	.	.	.	16gJ)	.	.	.	16bJ)	.	.	.
8E	-mend	.	.	8c	-mend	.	.	8f#	sum-	.	.	8a	sum-	.	.
8E	am	.	.	8A	am	.	.	16d#X	-mend	.	.	16f#	-mend	.	.
.	.	.	.	.	.	.	.	16f#	am	.	.	16a	am	.	.
=47	=47	=47	=47	=47	=47	=47	=47	=47	=47	=47	=47	=47	=47	=47	=47
4E	Saft.	.	.	4B	Saft.	.	.	4e	Saft.	.	.	4g	Saft.	.	.
8E	Lei-	.	<	8e	Lei-	.	<	8e	Lei-	.	<	8g	Lei-	.	<
16E	-se	.	.	16e	-se	.	.	16e	-se	.	.	16g	-se	.	.
16E	Be-	.	.	16e	Be-	.	.	16e	Be-	.	.	16g	Be-	.	.
=48	=48	=48	=48	=48	=48	=48	=48	=48	=48	=48	=48	=48	=48	=48	=48
*b:	*	*	*	*b:	*	*	*	*b:	*	*	*	*b:	*	*	*
8G	-we-	.	.	8dn	-we-	.	.	8e#X	-we-	.	.	8b	-we-	.	.
8G	-gung	.	.	8d	-gung	.	.	8e#	-gung	.	.	8b	-gung	.	.
8G	bebt	.	<	8d	bebt	.	<	8e#	bebt	.	<	8b	bebt	.	<
16G	in	.	(	16d	in	.	(	16e#	in	.	(	16b	in	.	(
16G	der	.	[[	16d	der	.	[[	16e#	der	.	[[	16b	der	.	[[
=49	=49	=49	=49	=49	=49	=49	=49	=49	=49	=49	=49	=49	=49	=49	=49
[2F#	Luft,	.	fp	(4B	Luft,	.	f	4f#	Luft,	.	f	4dd	Luft,	.	f
.	.	.	.	4d	.	.	.	8dd	rei-	.	.	8ff#	rei-	.	.
.	.	.	.	.	.	.	.	16cc#X	-zen-	.	.	16ee	-zen-	.	.
.	.	.	.	.	.	.	.	16b	-de	.	.	16dd	-de	.	.
=50	=50	=50	=50	=50	=50	=50	=50	=50	=50	=50	=50	=50	=50	=50	=50
2F#_	.	.	.	4f#)	.	.	.	8a#X	Re-	.	.	8cc#X	Re-	.	.
.	.	.	.	.	.	.	.	8a#	-gung,	.	.	8cc#	-gung,	.	.
.	.	.	.	8f#	rei-	.	>	8b	schlä-	.	>	8dd	schlä-	.	>
.	.	.	.	16e	-zen-	.	.	16a#	-fern-	.	.	16cc#	-fern-	.	.
.	.	.	.	16d	-de	.	.	16b	-der	.	.	16b	-der	.	.
=51	=51	=51	=51	=51	=51	=51	=51	=51	=51	=51	=51	=51	=51	=51	=51
8F#]	.	.	.	8c#X	Re-	.	.	4a#X	Duft,	.	.	4ee	Duft,	.	.
8r	.	.	.	8c#	-gung,	.	.	.	.	.	.	.	.	.	.
8.F#	in	.	>	8B	schlä-	.	.	[4f#	schlä-	.	.	8dd	rei-	.	.
.	.	.	.	16A#X	-fern-	.	.	.	.	.	.	16cc#X	-zen-	.	.
16F#k	der	.	.	16B	-der	.	.	.	.	.	.	16b	-de	.	.
=52	=52	=52	=52	=52	=52	=52	=52	=52	=52	=52	=52	=52	=52	=52	=52
[2F#	Luft,	.	.	4e	Duft,	.	.	8f#L]	.	.	.	8a#X	Re	.	.
.	.	.	.	.	.	.	.	8g	.	.	.	8a#	gung	.	.
.	.	.	.	8d	schlä-	.	.	8f#J	.	.	.	8b	schlä-	.	.
.	.	.	.	16c#X	-fern-	.	.	16e	-fern-	.	.	16an	-fern-	.	.
.	.	.	.	16B	-der	.	.	16d	-der	.	.	16g	-der	.	.
=53	=53	=53	=53	=53	=53	=53	=53	=53	=53	=53	=53	=53	=53	=53	=53
8F#]	.	.	.	(4A#X	Duft,	.	.	(4c#X	Duft,	.	.	[2f#	Duft,	.	.
8r	.	.	.	.	.	.	.	.	.	.	.	.	.	.	.
8B^	rei-	.	pp	4B	.	.	.	4d	.	.	.	.	.	.	.
16A	-zende	.	.	.	.	.	.	.	.	.	.	.	.	.	.
16G	.	.	.	.	.	.	.	.	.	.	.	.	.	.	.
=54	=54	=54	=54	=54	=54	=54	=54	=54	=54	=54	=54	=54	=54	=54	=54
8F#	Re-	.	.	4c#X	.	.	.	4e)	.	.	.	4f#]	.	.	pp
8F#	-gung,	.	.	.	.	.	.	.	.	.	.	.	.	.	.
8G^	schlä-	.	.	[4B)	.	.	.	[4d	schlä-	.	pp	[4b	schlä-	.	.
16F#	-fern-	.	.	.	.	.	.	.	.	.	.	.	.	.	.
16E	-der	.	.	.	.	.	.	.	.	.	.	.	.	.	.
=55	=55	=55	=55	=55	=55	=55	=55	=55	=55	=55	=55	=55	=55	=55	=55
(4D	Duft.	.	.	2B]	.	.	.	2d]	.	.	.	(4b]/	.	.	.
(4E)	.	.	.	.	.	.	.	.	.	.	.	8.a	.	.	.
.	.	.	.	.	.	.	.	.	.	.	.	16gk)	.	.	.
=56	=56	=56	=56	=56	=56	=56	=56	=56	=56	=56	=56	=56	=56	=56	=56
(2F#)	.	.	.	4B	schlä-	.	.	4d	-fern-	.	.	4f#	.	.	.
.	.	.	.	8.A#X	-fern-	.	.	4c#X	-der	.	.	8.f#	-fern-	.	pp
.	.	.	.	16A#k	-der	.	.	.	.	.	.	16f#k	-der	.	.
=57	=57	=57	=57	=57	=57	=57	=57	=57	=57	=57	=57	=57	=57	=57	=57
[2BB)	.	.	.	4B	Duft.	.	.	4d	Duft.	.	.	[2f#	Duft.	.	.
.	.	.	.	8B	Mäch-	.	.	8d	Mäch-	.	.	.	.	.	.
.	.	.	.	16B	-ti-	.	.	16d	-ti-	.	.	.	.	.	.
.	.	.	.	16B	-ger	.	.	16d	-ger	.	.	.	.	.	.
=58	=58	=58	=58	=58	=58	=58	=58	=58	=58	=58	=58	=58	=58	=58	=58
4BB]	.	.	.	8d^	rüh-	.	.	8f#^	rüh-	.	.	2f#_	.	.	.
.	.	.	.	16c#XL	-ret	.	.	16eL	-ret	.	.	.	.	.	.
.	.	.	.	16BJ	.	.	.	16dJ	.	.	.	.	.	.	.
4r	.	.	.	8d^	bald	.	.	8f#^	bald	.	.	.	.	.	.
.	.	.	.	16c#	sich	.	.	16e	sich	.	.	.	.	.	.
.	.	.	.	16B	ein	.	.	16d	ein	.	.	.	.	.	.
=59	=59	=59	=59	=59	=59	=59	=59	=59	=59	=59	=59	=59	=59	=59	=59
2r	.	.	.	[2B	Hauch.	.	.	[2d	Hauch,	.	.	8f#]	.	.	.
.	.	.	.	.	.	.	.	.	.	.	.	8r	.	.	.
*C:	*	*	*	*C:	*	*	*	*C:	*	*	*	*C:	*	*	*
.	.	.	.	.	.	.	.	.	.	.	.	8g	Mäch-	.	.
.	.	.	.	.	.	.	<	.	.	.	<	16g	-ti-	.	<
.	.	.	.	.	.	.	.	.	.	.	.	16g	-ger	.	.
=60	=60	=60	=60	=60	=60	=60	=60	=60	=60	=60	=60	=60	=60	=60	=60
2r	.	.	.	2B_	.	.	.	2d]	.	.	.	8b	rüh-	.	.
.	.	.	.	.	.	.	.	.	.	.	.	16aL	-ret	.	.
.	.	.	.	.	.	.	.	.	.	.	.	16gJ	bald	.	.
.	.	.	.	.	.	.	.	.	.	.	.	8b	.	.	.
.	.	.	.	.	.	.	.	.	.	.	.	16a	sich	.	.
.	.	.	.	.	.	.	.	.	.	.	.	16g	ein	.	.
=61	=61	=61	=61	=61	=61	=61	=61	=61	=61	=61	=61	=61	=61	=61	=61
4r	.	.	.	4B]	.	.	.	2fn	bald	.	f	2g	Hauch,	.	f
8G	Mäch-	.	f	8B	Mäch-	.	f	.	.	.	.	.	.	.	.
16G	-ti-	.	.	16B	-ti-	.	.	.	.	.	.	.	.	.	.
16G	-ger	.	.	16B	-ger	.	.	.	.	.	.	.	.	.	.
=62	=62	=62	=62	=62	=62	=62	=62	=62	=62	=62	=62	=62	=62	=62	=62
8B	rüh-	.	.	8d	rüh-	.	.	4.fn	sich	.	.	[2gg	.	.	.
16AL	-ret	.	.	16cL	-ret	.	.	.	.	.	.	.	.	.	.
16GJ	bald	.	.	16BJ	bald	.	.	.	.	.	.	.	.	.	.
8B	.	.	.	8d	.	.	.	.	.	.	.	.	.	.	.
16A	sich	.	.	16c	sich	.	.	8f	ein	.	.	.	.	.	.
16G	ein 	.	.	16B	ein 	.	.	.	.	.	.	.	.	.	.
=63	=63	=63	=63	=63	=63	=63	=63	=63	=63	=63	=63	=63	=63	=63	=63
4c	Hauch,	.	.	4e	Hauch,	.	.	8e	Hauch,	.	.	8gg]	.	.	.
.	.	.	.	.	.	.	.	8r	.	.	.	8r	.	.	.
8C	doch	.	pp	8G	doch	.	pp	8e	doch	.	pp	8ee	doch	.	pp
16C	er	.	.	16G	er	.	.	16e	er	.	.	16ee	er	.	.
16C	ver-	.	.	16G	ver-	.	.	16e	ver-	.	.	16ee	ver-	.	.
=64	=64	=64	=64	=64	=64	=64	=64	=64	=64	=64	=64	=64	=64	=64	=64
8C	-lie-	.	.	8G	-lie-	.	.	8e	-lie-	.	.	8dd	-lie-	.	.
8C	-ret	.	.	8G	-ret	.	.	8e	-ret	.	.	8cc	-ret	.	.
8C	gleich	.	.	8d	gleich	.	.	8fn	gleich	.	.	8b	gleich	.	.
16C	sich	.	.	16B	sich	.	.	16f	sich	.	.	16a	sich	.	.
16C	im	.	.	16B	im	.	.	16f	im	.	.	16a	im	.	.
=65	=65	=65	=65	=65	=65	=65	=65	=65	=65	=65	=65	=65	=65	=65	=65
8C	Strauch,	.	.	8c	Strauch,	.	.	8e	Strauch,	.	.	2g	Strauch,	.	.
8r	.	.	.	8r	.	.	.	8r	.	.	.	.	.	.	.
8c	Mäch-	.	<	8e	Mäch-	.	<	8g	Mäch-	.	<	.	.	.	.
16c	-ti-	.	.	16e	-ti-	.	.	16g	-ti-	.	.	.	.	.	.
16c	-ger	.	.	16e	-ger	.	.	16g	-ger	.	.	.	.	.	.
=66	=66	=66	=66	=66	=66	=66	=66	=66	=66	=66	=66	=66	=66	=66	=66
*a:	*	*	*	*a:	*	*	*	*a:	*	*	*	*a:	*	*	*
8B	rüh-	.	.	8d	rüh-	.	.	8g#X	rüh-	.	.	2r	.	.	.
8B	-ret	.	.	8d	-ret	.	.	8g#	-ret	.	.	.	.	.	.
8d	bald	.	.	8fn	bald	.	.	8g#	bald	.	.	.	.	.	.
16c	sich	.	.	16e	sich	.	.	16g#	sich	.	.	.	.	.	.
16B	ein	.	.	16d	ein	.	.	16g#	ein	.	.	.	.	.	.
=67	=67	=67	=67	=67	=67	=67	=67	=67	=67	=67	=67	=67	=67	=67	=67
[4c	Hauch,	.	f	[4e	Hauch,	.	f	[4a	Hauch,	.	f	4r	.	.	.
8c]	.	.	.	8e]	.	.	.	8a]	.	.	.	8ee^	doch	.	.
8r	.	.	.	8r	.	.	.	8r	.	.	.	16dd	er	.	.
.	.	.	.	.	.	.	.	.	.	.	.	16dd	ver-	.	.
=68	=68	=68	=68	=68	=68	=68	=68	=68	=68	=68	=68	=68	=68	=68	=68
4r	.	.	.	4r	.	.	.	4r	.	.	.	8cc	-lie-	.	.
.	.	.	.	.	.	.	.	.	.	.	.	8b	-ret	.	.
*G:	*	*	*	*G:	*	*	*	*G:	*	*	*	*G:	*	*	*
8C	doch	.	p	8e	doch	.	p	8gn	doch	.	p	8a	gleich	.	.
.	.	.	.	.	.	.	.	.	.	.	.	8qcc/	.	.	.
16C	er	.	.	16e	er	.	.	16g	er	.	.	16b	sich	.	.
16C	ver-	.	.	16e	ver-	.	.	16g	ver-	.	.	16a	im	.	.
=69	=69	=69	=69	=69	=69	=69	=69	=69	=69	=69	=69	=69	=69	=69	=69
4C	-lie-	.	.	4e	-lie-	.	.	4g	-lie-	.	.	4a	Strauch,	.	.
8C	-ret	.	.	8A	-ret	.	.	8g	-ret	.	.	8ee	doch	.	.
8r	.	.	.	8r	.	.	.	8r	.	.	.	16dd	er	.	>
.	.	.	.	.	.	.	.	.	.	.	.	16dd	ver-	.	.
=70	=70	=70	=70	=70	=70	=70	=70	=70	=70	=70	=70	=70	=70	=70	=70
4r	.	.	.	4r	.	.	.	4r	.	.	.	8cc	-lie-	.	.
.	.	.	.	.	.	.	.	.	.	.	.	8b	-ret	.	.
8C	gleich	.	pp	8e	gleich	.	pp	8g	gleich	.	pp	8a	gleich	.	.
.	.	.	.	.	.	.	.	.	.	.	.	8qcc/	.	.	.
16C	sich	.	.	16e	sich	.	.	16g	sich	.	.	16b	sich	.	.
16C	im	.	.	16e	im	.	.	16g	im	.	.	16a	im	.	.
=71	=71	=71	=71	=71	=71	=71	=71	=71	=71	=71	=71	=71	=71	=71	=71
[4C	Strauch.	.	.	(4e	Strauch.	.	.	[4g	Strauch.	.	.	4a	Strauch,	.	.
8C]	.	.	.	8A)	.	.	.	8g]	.	.	.	8a	gleich	.	.
.	.	.	.	.	.	.	.	.	.	.	.	8qcc/	.	.	.
8r	.	.	.	8r	.	.	.	8r	.	.	.	16b	sich	.	.
.	.	.	.	.	.	.	.	.	.	.	.	16a	im	.	.
=72	=72	=72	=72	=72	=72	=72	=72	=72	=72	=72	=72	=72	=72	=72	=72
2r	.	.	.	2r	.	.	.	2r	.	.	.	4a	Strauch,	.	.
.	.	.	.	.	.	.	.	.	.	.	.	12a	gleich	.	<
.	.	.	.	.	.	.	.	.	.	.	.	8qcc/	.	.	.
.	.	.	.	.	.	.	.	.	.	.	.	12b/	sich	.	.
.	.	.	.	.	.	.	.	.	.	.	.	12a	im	.	<
=73	=73	=73	=73	=73	=73	=73	=73	=73	=73	=73	=73	=73	=73	=73	=73
4r	.	.	.	4r	.	.	.	4r	.	.	.	4a	Strauch.	.	[[
=||74	=||74	=||74	=||74	=||74	=||74	=||74	=||74	=||74	=||74	=||74	=||74	=||74	=||74	=||74	=||74
*M3/8	*	*	*	*M3/8	*	*	*	*M3/8	*	*	*	*M3/8	*	*	*
*MM104	*	*	*	*MM104	*	*	*	*MM104	*	*	*	*MM104	*	*	*
8c	A-	.	f	8f#X	A-	.	f	8a	A-	.	f	8dd	A-	.	f
.	.	.	.	.	.	.	.	.	.	.	.	8qff#/	.	.	.
8c	-ber	.	.	8f#	-ber	.	.	8a	-ber	.	.	8ee	-ber	.	.
8c	zum	.	.	8f#	zum	.	.	8a	zum	.	.	8dd	zum	.	.
=75	=75	=75	=75	=75	=75	=75	=75	=75	=75	=75	=75	=75	=75	=75	=75
4B	Bu-	.	.	4d	Bu-	.	.	4g	Bu-	.	.	4gg	Bu-	.	.
8B	-sen	.	.	8d	-sen	.	.	8g	-sen	.	.	8dd	-sen	.	.
=76	=76	=76	=76	=76	=76	=76	=76	=76	=76	=76	=76	=76	=76	=76	=76
8B	kehrt	.	.	8d	kehrt	.	.	8g	kehrt	.	.	8b	kehrt	.	.
8A	er	.	.	8d	er	.	.	8f#	er	.	.	8cc	er	.	.
8c	zu-	.	.	8d	zu-	.	.	8f#	zu-	.	.	8ee	zu-	.	.
=77	=77	=77	=77	=77	=77	=77	=77	=77	=77	=77	=77	=77	=77	=77	=77
4.B	-rück.	.	.	4.d	-rück.	.	.	4.g	-rück.	.	.	4.dd	-rück.	.	.
=78	=78	=78	=78	=78	=78	=78	=78	=78	=78	=78	=78	=78	=78	=78	=78
8BB	Hel-	.	.	8d	Hel-	.	.	8g	Hel-	.	.	8dd	Hel-	.	.
8BB	-fet,	.	<	8d	-fet,	.	<	8g	-fet,	.	<	8cc	-fet,	.	<
8BB	ihr	.	.	8d#X	ihr	.	(	8g	ihr	.	(	8b	ihr	.	(
=79	=79	=79	=79	=79	=79	=79	=79	=79	=79	=79	=79	=79	=79	=79	=79
(8.BBL	Mu-	.	[[	(8.d#XL	Mu-	.	[[	4g	Mu-	.	[[	(8.bL	Mu-	.	(
16CJk)	.	.	.	16eJk)	.	.	.	.	.	.	.	16aJk)	.	.	[[
8C	-sen,	.	.	8e	-sen,	.	.	8a	-sen,	.	.	8a	-sen,	.	.
=80	=80	=80	=80	=80	=80	=80	=80	=80	=80	=80	=80	=80	=80	=80	=80
8C#X	tra-	.	f	8g	tra-	.	sf	8b-X	tra-	.	sf	8ee	tra-	.	sf
8C#	-gen	.	.	8f#	-gen	.	.	8a	-gen	.	.	8a	-gen	.	.
8C#	das	.	.	8e	das	.	.	8g	das	.	.	8a	das	.	.
=81	=81	=81	=81	=81	=81	=81	=81	=81	=81	=81	=81	=81	=81	=81	=81
4.D	Glück!	.	.	4.dn	Glück!	.	.	4.f#	Glück!	.	.	4.a	Glück!	.	.
=82	=82	=82	=82	=82	=82	=82	=82	=82	=82	=82	=82	=82	=82	=82	=82
8.F#	Sa-	.	p	8.c	Sa-	.	p	8.d	Sa-	.	p	8.a	Sa-	.	p
16E	-get	.	.	16c	-get	.	.	16d	-get	.	.	16g	-get	.	.
8D	seit	.	.	8c	seit	.	.	8d	seit	.	.	8f#	seit	.	.
=83	=83	=83	=83	=83	=83	=83	=83	=83	=83	=83	=83	=83	=83	=83	=83
(8AL	ges-	.	.	4c	ges-	.	.	4d	ges-	.	.	8ccL	ges-	.	.
8GJ)	.	.	.	.	.	.	.	.	.	.	.	8bJ	.	.	.
8F#	-tern	.	.	8c	-tern	.	.	8d	-tern	.	.	8a	-tern	.	.
=84	=84	=84	=84	=84	=84	=84	=84	=84	=84	=84	=84	=84	=84	=84	=84
8c	wie	.	.	8c	wie	.	.	8f#	wie	.	.	8ee	wie	.	.
8B	mir	.	.	8c	mir	.	.	8f#	mir	.	.	8dd	mir	.	.
8A	ge-	.	.	8c	ge-	.	.	8f#	ge-	.	.	8cc	ge-	.	.
=85	=85	=85	=85	=85	=85	=85	=85	=85	=85	=85	=85	=85	=85	=85	=85
4.A	-schah?	.	.	4.c	-schah?	.	.	4.f#	-schah?	.	.	4.cc	-schah?	.	.
=86	=86	=86	=86	=86	=86	=86	=86	=86	=86	=86	=86	=86	=86	=86	=86
*C:	*	*	*	*C:	*	*	*	*C:	*	*	*	*C:	*	*	*
8.G	Sa-	.	.	8.d	Sa-	.	.	8.fn	Sa-	.	.	8.b	Sa-	.	.
16G	-get	.	<	16c	-get	.	<	16f	-get	.	<	16a	-get	.	<
8G	seit	.	.	8B	seit	.	.	8f	seit	.	.	8g	seit	.	.
=87	=87	=87	=87	=87	=87	=87	=87	=87	=87	=87	=87	=87	=87	=87	=87
4G	ges-	.	.	(8fnL	ges-	.	.	4fn	ges-	.	.	(8ddL	ges-	.	.
.	.	.	.	8eJ)	.	.	.	.	.	.	.	8ccJ)	.	.	.
8G	-tern	.	.	8d	-tern	.	.	8f	-tern	.	.	8b	-tern	.	.
=88	=88	=88	=88	=88	=88	=88	=88	=88	=88	=88	=88	=88	=88	=88	=88
8G	wie	.	.	8B	wie	.	.	8a	wie	.	.	8ffn	wie	.	.
8G	mir	.	.	8B	mir	.	.	8g	mir	.	.	8ee	mir	.	.
8G	ge-	.	.	8B	ge-	.	.	8fn	ge-	.	.	8dd	ge-	.	.
=89	=89	=89	=89	=89	=89	=89	=89	=89	=89	=89	=89	=89	=89	=89	=89
4.G	-schah?	.	.	4.B	-schah?	.	.	4.fn	-schah?	.	.	4.dd	-schah?	.	.
=90	=90	=90	=90	=90	=90	=90	=90	=90	=90	=90	=90	=90	=90	=90	=90
4.r	.	.	.	4.r	.	.	.	8e	Lieb-	.	f	8g	Lieb-	.	f
.	.	.	.	.	.	.	.	8g	-li-	.	.	8cc	-li-	.	.
.	.	.	.	.	.	.	.	8cc	-che	.	.	8ee	-che	.	.
=91	=91	=91	=91	=91	=91	=91	=91	=91	=91	=91	=91	=91	=91	=91	=91
4.r	.	.	.	4.r	.	.	.	4.ee	Schwes-	.	>	4.gg	Schwes-	.	>
=92	=92	=92	=92	=92	=92	=92	=92	=92	=92	=92	=92	=92	=92	=92	=92
8E	Lieb-	.	f	8G	Lieb-	.	f	4.cc	-tern,	.	]]	4.ee	-tern,	.	]]
8G	-li-	.	.	8c	-li-	.	.	.	.	.	.	.	.	.	.
8c	-che	.	.	8e	-che	.	.	.	.	.	.	.	.	.	.
=93	=93	=93	=93	=93	=93	=93	=93	=93	=93	=93	=93	=93	=93	=93	=93
4.e	Schwes-	.	>	4.g	Schwes-	.	>	4.r	.	.	.	4.r	.	.	.
=94	=94	=94	=94	=94	=94	=94	=94	=94	=94	=94	=94	=94	=94	=94	=94
*a:	*	*	*	*a:	*	*	*	*a:	*	*	*	*a:	*	*	*
4.c	-tern,	.	]]	4.e	-tern,	.	]]	8c	Lieb-	.	p	8e	Lieb-	.	p
.	.	.	.	.	.	.	.	8e	-chen	.	.	8a	-chen	.	.
.	.	.	.	.	.	.	.	8a	ist	.	.	8cc	ist	.	.
=95	=95	=95	=95	=95	=95	=95	=95	=95	=95	=95	=95	=95	=95	=95	=95
4.r	.	.	.	4.r	.	.	.	[4.cc	da!	.	>	[4.ee	da!	.	>
=96	=96	=96	=96	=96	=96	=96	=96	=96	=96	=96	=96	=96	=96	=96	=96
8C	Lieb-	.	p	8E	Lieb-	.	p	4cc]	.	.	]]	4ee]	.	.	]]
8E	-chen	.	.	8A	-chen	.	.	.	.	.	.	.	.	.	.
8A	ist	.	.	8c	ist	.	.	8r	.	.	.	8r	.	.	.
=97	=97	=97	=97	=97	=97	=97	=97	=97	=97	=97	=97	=97	=97	=97	=97
4.c	da!	.	>]	[4.e	da!	.	>	4.r	.	.	.	4.r	.	.	.
=98	=98	=98	=98	=98	=98	=98	=98	=98	=98	=98	=98	=98	=98	=98	=98
*G:	*	*	*	*G:	*	*	*	*G:	*	*	*	*G:	*	*	*
8c	Sa-	.	p	4.e]	.	.	]]	8g	Sa-	.	p	8a	Sa-	.	p
.	.	.	.	.	.	.	.	.	.	.	.	8qcc/	.	.	.
8c	-get	.	.	.	.	.	.	8g	-get	.	.	8b	-get	.	.
8c	seit	.	.	.	.	.	.	8g	seit	.	.	8a	seit	.	.
=99	=99	=99	=99	=99	=99	=99	=99	=99	=99	=99	=99	=99	=99	=99	=99
4c	ges-	.	.	4.r	.	.	.	4f#	ges-	.	.	4ee	ges-	.	.
8B	-tern	.	.	.	.	.	.	8g	-tern	.	.	8dd	-tern	.	.
=100	=100	=100	=100	=100	=100	=100	=100	=100	=100	=100	=100	=100	=100	=100	=100
8c	wie	.	.	8e	wie	.	.	8g	wie	.	.	8a	wie	.	.
.	.	.	.	.	.	.	.	.	.	.	.	8qcc/	.	.	.
8c	mir	.	.	8e	mir	.	.	8g	mir	.	.	8b	mir	.	.
8c	ge-	.	.	8e	ge-	.	.	8g	ge-	.	.	8a	ge-	.	.
=101	=101	=101	=101	=101	=101	=101	=101	=101	=101	=101	=101	=101	=101	=101	=101
(4c^	-schah?	.	.	(4c^	-schah?	.	.	(4f#^	-schah?	.	.	(4ee^	-schah?	.	.
8B)	.	.	.	8d)	.	.	.	8g)	.	.	.	8dd)	.	.	.
=102	=102	=102	=102	=102	=102	=102	=102	=102	=102	=102	=102	=102	=102	=102	=102
8BB	Lieb-	.	.	8d	Lieb-	.	.	8b	Lieb-	.	.	8dd	Lieb-	.	.
8C	-li-	.	.	8e	-li-	.	.	8a	-li-	.	.	8cc	-li-	.	.
8C#X	-che	.	.	8e	-che	.	.	8g	-che	.	.	8b	-che	.	.
=103	=103	=103	=103	=103	=103	=103	=103	=103	=103	=103	=103	=103	=103	=103	=103
4D	Schwes-	.	.	8dL	Schwes-	.	.	8gL	Schwes-	.	.	8bL	Schwes-	.	.
.	.	.	.	8cJ	.	.	.	8f#J	.	.	.	8aJ	.	.	.
8D	-tern,	.	.	8B	-tern,	.	.	8g	-tern,	.	.	8b	-tern,	.	.
=104	=104	=104	=104	=104	=104	=104	=104	=104	=104	=104	=104	=104	=104	=104	=104
8D	Lieb-	.	.	8A	Lieb-	.	.	8f#	Lieb-	.	.	8cc	Lieb-	.	.
8D	-chen	.	.	8c	-chen	.	.	8f#	-chen	.	.	8a	-chen	.	.
8D	ist	.	.	8d	ist	.	.	8f#	ist	.	.	8b	ist	.	.
=105	=105	=105	=105	=105	=105	=105	=105	=105	=105	=105	=105	=105	=105	=105	=105
4.G	da!	.	.	4.B	da!	.	.	4.g	da!	.	.	4.g	da!	.	.
=106	=106	=106	=106	=106	=106	=106	=106	=106	=106	=106	=106	=106	=106	=106	=106
*C:	*	*	*	*C:	*	*	*	*C:	*	*	*	*C:	*	*	*
8GG	Sa-	.	pp	4.r	.	.	.	8fn	Sa-	.	pp	8g	Sa-	.	pp
.	.	.	.	.	.	.	.	.	.	.	.	8qb/	.	.	.
8GG	-get	.	.	.	.	.	.	8f	-get	.	.	8a	-get	.	.
8GG	seit	.	.	.	.	.	.	8f	seit	.	.	8g	seit	.	.
=107	=107	=107	=107	=107	=107	=107	=107	=107	=107	=107	=107	=107	=107	=107	=107
!	!	!	!	!LO:TX:a:t=dolce	!	!	!	!	!	!	!	!	!	!	!
4GG	ges-	.	.	4.g	Lieb-	.	sf	4e	ges-	.	.	4cc	ges-	.	.
8GG	-tern	.	.	.	.	.	.	8e	-tern	.	.	8g	-tern	.	.
=108	=108	=108	=108	=108	=108	=108	=108	=108	=108	=108	=108	=108	=108	=108	=108
8GG	wie	.	.	4g	-li-	.	.	8fn	wie	.	.	8g	wie	.	.
.	.	.	.	.	.	.	.	.	.	.	.	8qb/	.	.	.
8GG	mir	.	.	.	.	.	.	8f	mir	.	.	8a	mir	.	.
8GG	ge-	.	.	8B	-che	.	.	8f	ge-	.	.	8g	ge-	.	.
=109	=109	=109	=109	=109	=109	=109	=109	=109	=109	=109	=109	=109	=109	=109	=109
4.GG	-schah,	.	.	(4c	Schwes-	.	.	4.e	-schah,	.	.	4.g	-schah,	.	.
.	.	.	.	8e)	.	.	.	.	.	.	.	.	.	.	.
=110	=110	=110	=110	=110	=110	=110	=110	=110	=110	=110	=110	=110	=110	=110	=110
8GG	wie	.	.	(4d	-tern,	.	.	8fn	wie	.	.	8g	wie	.	.
.	.	.	.	.	.	.	.	.	.	.	.	8qb/	.	.	.
8GG	mir	.	.	.	.	.	.	8f	mir	.	.	8a	mir	.	.
8GG	ge-	.	.	8B)	.	.	.	8f	ge-	.	.	8g	ge-	.	.
=111	=111	=111	=111	=111	=111	=111	=111	=111	=111	=111	=111	=111	=111	=111	=111
[4.GG	-schah?	.	.	(4g	Lieb-	.	.	(4e	-schah,	.	.	4cc	-schah,	.	.
.	.	.	.	8fn)	.	.	.	8d)	.	.	.	8b	wie	.	.
=112	=112	=112	=112	=112	=112	=112	=112	=112	=112	=112	=112	=112	=112	=112	=112
4.GG_	.	.	.	4e	-chen	.	.	4c	mir	.	.	4a	mir	.	.
.	.	.	.	8e-X	ist	.	.	8c	ge-	.	.	8g	ge-	.	.
=113	=113	=113	=113	=113	=113	=113	=113	=113	=113	=113	=113	=113	=113	=113	=113
*G:	*	*	*	*G:	*	*	*	*G:	*	*	*	*G:	*	*	*
4.GG]	.	.	.	(4.d	da!	.	.	4.c	-schah?	.	.	4.f#	-schah?	.	.
=114	=114	=114	=114	=114	=114	=114	=114	=114	=114	=114	=114	=114	=114	=114	=114
8GG	Lieb-	.	pp	4.c)	.	.	.	8d	Lieb-	.	pp	4.ra	.	.	.
.	.	.	.	.	.	.	.	8qf#/	.	.	.	.	.	.	.
8GG	-li-	.	.	.	.	.	.	8e	-li-	.	.	.	.	.	.
8GG	che	.	.	.	.	.	.	8d	che	.	.	.	.	.	.
=115	=115	=115	=115	=115	=115	=115	=115	=115	=115	=115	=115	=115	=115	=115	=115
!	!	!	!	!	!	!	!	!	!	!	!	!LO:TX:a:t=dolce	!	!	!
4GG	Schwes-	.	.	4B	Schwes-	.	pp	4g	Schwes-	.	.	4.dd	Lieb-	.	sf
8GG	-tern,	.	.	8B	-tern,	.	.	8d	-tern,	.	.	.	.	.	.
=116	=116	=116	=116	=116	=116	=116	=116	=116	=116	=116	=116	=116	=116	=116	=116
8GG	lieb-	.	.	8c	lieb-	.	.	8d	lieb-	.	.	4dd	-li-	.	.
.	.	.	.	.	.	.	.	8qf#/	.	.	.	.	.	.	.
8GG	-li-	.	.	8c	-li-	.	.	8e	-li-	.	.	.	.	.	.
8GG	che	.	.	8c	che	.	.	8d	che	.	.	8f#	-che	.	.
=117	=117	=117	=117	=117	=117	=117	=117	=117	=117	=117	=117	=117	=117	=117	=117
4GG	Schwes-	.	.	4B	Schwes-	.	.	4d	Schwes-	.	.	(4g	Schwes-	.	.
8GG	-tern,	.	.	8B	-tern,	.	.	8d	-tern,	.	.	8b)	.	.	.
=118	=118	=118	=118	=118	=118	=118	=118	=118	=118	=118	=118	=118	=118	=118	=118
8GG	lieb-	.	.	8c	lieb-	.	.	8d	lieb-	.	.	(4a	-tern,	.	.
.	.	.	.	.	.	.	.	8qf#/	.	.	.	.	.	.	.
8GG	-chen	.	<	8c	-chen	.	<	8e	-chen	.	<	.	.	.	.
8GG	ist	.	.	8c	ist	.	.	8d	ist	.	.	8f#)	.	.	.
=119	=119	=119	=119	=119	=119	=119	=119	=119	=119	=119	=119	=119	=119	=119	=119
(4GG	da,	.	f	(4B	da,	.	.	(4d	da,	.	.	4.dd	Lieb-	.	f
8BB)	.	.	.	8d)	.	.	.	8g)	.	.	.	.	.	.	.
=120	=120	=120	=120	=120	=120	=120	=120	=120	=120	=120	=120	=120	=120	=120	=120
!LO:TX:a:t=ritard.	!	!	!	!LO:TX:a:t=ritard.	!	!	!	!LO:TX:a:t=ritard.	!	!	!	!LO:TX:a:t=ritard.	!	!	!
4.D	ist	.	.	(4d	ist	.	.	(4b	ist	.	.	8ddL	-chen	.	.
.	.	.	.	.	.	.	.	.	.	.	.	8bJ	.	.	.
.	.	.	.	8c)	.	.	.	8a)	.	.	.	8dd	ist	.	.
=121	=121	=121	=121	=121	=121	=121	=121	=121	=121	=121	=121	=121	=121	=121	=121
4.GG;	da!	.	.	4.B;	da!	.	.	4.g;	da!	.	.	4.gg;	da!	.	.
==	==	==	==	==	==	==	==	==	==	==	==	==	==	==	==
*-	*-	*-	*-	*-	*-	*-	*-	*-	*-	*-	*-	*-	*-	*-	*-
!!!system-decoration: ([s1,s2,s3,s4])
!!!RDF**kern: i = editorial accidental
!!!AGN: Choral
!!!YOR: https://mdz-nbn-resolving.de/details:bsb11379755
!!!YOO: München, Bayerische Staatsbibliothek
!!!URL-scan: https://www.digitale-sammlungen.de/de/view/bsb11379755?page=3
!!!EED: Wolfgang Drescher
!!!END: 2024/10/21
!!!ENC: Wolfgang Drescher
!!!END: 2024/10/21
!!!title: @{OPS} @{ONM}. @{OTL}